symbols/web/sort/materialsymbolsrounded/sort_wght200grad200_40px.svg

<svg xmlns="http://www.w3.org/2000/svg" height="40" width="40"><path d="M13.417 30.667h-7q-.459 0-.771-.313-.313-.312-.313-.729t.313-.75q.312-.333.771-.333h7q.416 0 .75.333.333.333.333.75 0 .458-.333.75-.334.292-.75.292Zm20.25-21.792H6.417q-.459 0-.771-.313-.313-.312-.313-.77 0-.417.313-.73.312-.312.771-.312h27.25q.416 0 .729.312.312.313.312.771 0 .417-.312.729-.313.313-.729.313ZM23.542 19.792H6.417q-.459 0-.771-.334-.313-.333-.313-.75 0-.416.313-.729.312-.312.771-.312h17.125q.458 0 .77.312.313.313.313.729 0 .459-.313.771-.312.313-.77.313Z"/></svg>

<svg xmlns="http://www.w3.org/2000/svg" height="40" width="40"><path d="M13.417 30.667H6.417Q5.958 30.667 5.646 30.354Q5.333 30.042 5.333 29.625Q5.333 29.208 5.646 28.875Q5.958 28.542 6.417 28.542H13.417Q13.833 28.542 14.167 28.875Q14.5 29.208 14.5 29.625Q14.5 30.083 14.167 30.375Q13.833 30.667 13.417 30.667ZM33.667 8.875H6.417Q5.958 8.875 5.646 8.562Q5.333 8.25 5.333 7.792Q5.333 7.375 5.646 7.062Q5.958 6.75 6.417 6.75H33.667Q34.083 6.75 34.396 7.062Q34.708 7.375 34.708 7.833Q34.708 8.25 34.396 8.562Q34.083 8.875 33.667 8.875ZM23.542 19.792H6.417Q5.958 19.792 5.646 19.458Q5.333 19.125 5.333 18.708Q5.333 18.292 5.646 17.979Q5.958 17.667 6.417 17.667H23.542Q24 17.667 24.312 17.979Q24.625 18.292 24.625 18.708Q24.625 19.167 24.312 19.479Q24 19.792 23.542 19.792Z"/></svg>
